X:1
T:Title
%%score { 1 | 2 }
L:1/8
Q:1/4=100
M:4/4
K:Bb
V:1 treble nm="Grand Piano"
V:2 bass 
V:1
 [DF][DF][DF][DF] [DF]2 [FB]2 | A6 z2 | FFFF F2 c2 | [DB]6 z2 | [DF][DF][DF][DF] ^F2 A2 | G6 z2 | %6
w: W.~H.~Doane * * * * *||||||
 GGGG F2 F2 | [DF]6 z2 |] %8
w: ||
V:2
 [B,,B,][B,,B,][B,,B,][B,,B,] [B,,B,]2 [D,B,]2 | [F,CF]6 z2 | %2
 [F,CE][F,CE][F,CE][F,CE] [F,A,E]2 [F,A,E]2 | [B,,B,]6 z2 | %4
 [B,,B,][B,,B,][B,,B,][B,,B,] [D,A,D]2 [D,^F,D]2 | [E,G,B,]6 z2 | %6
 [E,B,E][E,B,E][E,B,E][E,B,E] [F,B,D]2 [F,A,E]2 | [B,,B,]6 z2 |] %8

